Point/img/six-vector.svg

<svg width="911" height="665" viewBox="0 0 911 665" fill="none" xmlns="http://www.w3.org/2000/svg">
<path fill-rule="evenodd" clip-rule="evenodd" d="M478.744 8.30715C547.517 20.6917 594.95 76.5512 657.72 107.262C740.005 147.52 868.387 130.928 902.854 215.806C936.681 299.106 845.392 380.355 800.173 458.061C764.904 518.668 728.765 578.669 669.701 616.462C613.081 652.692 545.683 669.861 478.744 663.735C415.683 657.964 371.353 604.644 311.595 583.69C213.929 549.443 76.2874 589.443 19.7113 502.774C-33.6375 421.049 33.6286 310.673 75.9737 222.74C113.724 144.35 169.092 73.9862 245.889 33.0997C316.519 -4.50336 399.995 -5.87381 478.744 8.30715Z" fill="#E1F0EE"/>
</svg>

<svg width="911" height="665" fill="none" xmlns="http://www.w3.org/2000/svg"><path fill-rule="evenodd" clip-rule="evenodd" d="M478.744 8.307c68.773 12.385 116.206 68.244 178.976 98.955 82.285 40.258 210.667 23.666 245.134 108.544 33.827 83.3-57.462 164.549-102.681 242.255-35.269 60.607-71.408 120.608-130.472 158.401-56.62 36.23-124.018 53.399-190.957 47.273-63.061-5.771-107.391-59.091-167.149-80.045-97.666-34.247-235.308 5.753-291.884-80.916-53.349-81.725 13.918-192.101 56.263-280.034 37.75-78.39 93.118-148.754 169.915-189.64C316.519-4.503 399.995-5.874 478.744 8.307z" fill="#E1F0EE"/></svg>
